libs/icons/src/svg/superscript.svg

<svg width="16" height="16" viewBox="0 0 16 16" fill="none" xmlns="http://www.w3.org/2000/svg">
<g clip-path="url(#clip0_4_324)">
<path fill-rule="evenodd" clip-rule="evenodd" d="M12.8733 3.37067V4H16V2.72733H15.2827L15.188 3.262C15.1747 3.33 15.1473 3.34333 15.08 3.34333H14.0847L14.8493 2.612L14.8546 2.607C15.3464 2.13571 15.7833 1.71709 15.7833 1.08267C15.7833 0.446667 15.4113 0 14.362 0C13.6513 0 12.8327 0.176 12.8267 1.25267L13.7467 1.334C13.7467 0.853334 13.902 0.731334 14.2747 0.731334C14.6333 0.731334 14.7553 0.914 14.7553 1.16467C14.7553 1.53838 14.4813 1.80424 13.8414 2.42505C13.8215 2.44435 13.8013 2.464 13.7807 2.484L12.8733 3.37067ZM0.666667 2.66667C0.298477 2.66667 0 2.96514 0 3.33333V4.66667C0 5.03486 0.298477 5.33334 0.666667 5.33334C1.03486 5.33334 1.33333 5.03486 1.33333 4.66667V4H5.33334V14H3.33333C2.96514 14 2.66667 14.2985 2.66667 14.6667C2.66667 15.0349 2.96514 15.3333 3.33333 15.3333H6H8.66667C9.03486 15.3333 9.33334 15.0349 9.33334 14.6667C9.33334 14.2985 9.03486 14 8.66667 14H6.66667V4H10.6667V4.66667C10.6667 5.03486 10.9651 5.33334 11.3333 5.33334C11.7015 5.33334 12 5.03486 12 4.66667V3.33333C12 2.96514 11.7015 2.66667 11.3333 2.66667H6H0.666667Z" fill="#202327"/>
</g>
<defs>
<clipPath id="clip0_4_324">
<rect width="16" height="16" fill="white"/>
</clipPath>
</defs>
</svg>

<svg xmlns="http://www.w3.org/2000/svg" viewBox="0 0 16 16" class="sageicon"><path fill-rule="evenodd" d="M12.873 3.37V4H16V2.727h-.717l-.095.535c-.013.068-.04.081-.108.081h-.995l.764-.731.006-.005c.491-.471.928-.89.928-1.524C15.783.447 15.411 0 14.362 0c-.71 0-1.53.176-1.535 1.253l.92.081c0-.48.155-.603.528-.603.358 0 .48.183.48.434 0 .373-.274.64-.914 1.26l-.06.059-.908.887ZM.667 2.668A.667.667 0 0 0 0 3.333v1.334a.667.667 0 1 0 1.333 0V4h4v10h-2a.667.667 0 0 0 0 1.333h5.334a.667.667 0 1 0 0-1.333h-2V4h4v.667a.667.667 0 1 0 1.333 0V3.333a.667.667 0 0 0-.667-.666H.667Z"/></svg>
